config/expand/iconfont/module-menu/module-gongchengguanli.svg

<?xml version="1.0" encoding="UTF-8"?>
<svg width="23px" height="20px" viewBox="0 0 23 20" version="1.1" xmlns="http://www.w3.org/2000/svg" xmlns:xlink="http://www.w3.org/1999/xlink">
    <!-- Generator: Sketch 53 (72520) - https://sketchapp.com -->
    <title>gongchengguanli</title>
    <desc>Created with Sketch.</desc>
    <defs>
        <linearGradient x1="14.3387761%" y1="50%" x2="100%" y2="50%" id="linearGradient-1">
            <stop stop-color="#B7B7B7" offset="0%"></stop>
            <stop stop-color="#FFFFFF" offset="100%"></stop>
        </linearGradient>
        <linearGradient x1="14.3387761%" y1="50%" x2="100%" y2="50%" id="linearGradient-2">
            <stop stop-color="#B7B7B7" offset="0%"></stop>
            <stop stop-color="#FFFFFF" offset="100%"></stop>
        </linearGradient>
        <linearGradient x1="14.3387761%" y1="50%" x2="100%" y2="50%" id="linearGradient-3">
            <stop stop-color="#B7B7B7" offset="0%"></stop>
            <stop stop-color="#FFFFFF" offset="100%"></stop>
        </linearGradient>
        <linearGradient x1="14.3387761%" y1="50%" x2="100%" y2="50%" id="linearGradient-4">
            <stop stop-color="#B7B7B7" offset="0%"></stop>
            <stop stop-color="#FFFFFF" offset="100%"></stop>
        </linearGradient>
    </defs>
    <g id="Page-2" stroke="none" stroke-width="1" fill="none" fill-rule="evenodd">
        <g id="图标" transform="translate(-523.000000, -441.000000)">
            <g id="gongchengguanli" transform="translate(523.000000, 441.000000)">
                <g id="yuanquyunwei"></g>
                <path d="M11.8725104,10.3441169 C11.6029358,10.054884 11.1969458,9.93582531 10.8138106,10.0336477 C10.4306754,10.1314702 10.1315018,10.4305719 10.0336558,10.813615 C9.93580988,11.1966582 10.0548972,11.6025507 10.3441996,11.8720605 L14.1274898,15.6558833 C14.3970644,15.9451161 14.8030544,16.0641747 15.1861895,15.9663522 C15.5693246,15.8685298 15.8684982,15.5694281 15.9663441,15.186385 C16.0641901,14.803342 15.9451029,14.3974495 15.6558006,14.1279396 L11.8725104,10.3441169 Z" id="Path" fill="url(#linearGradient-1)"></path>
                <path d="M14.5065427,8.44254498 C14.9195514,5.86202424 13.9186882,3.25800674 11.8831012,1.61694996 C9.84751426,-0.0241068161 7.08854713,-0.451202877 4.65135551,0.497454892 C4.35369043,0.612698287 4.13448795,0.870444253 4.06871003,1.1825499 C4.0029321,1.49465555 4.09949124,1.81883241 4.32536657,2.04421983 L7.21143861,4.92522668 C7.57953347,5.29345425 7.57953347,5.88998352 7.21143861,6.2582111 L6.28759348,7.18249745 C5.91904025,7.55026707 5.32198343,7.55026707 4.9534302,7.18249745 L2.05728901,4.2901728 C1.83254833,4.0653689 1.50962116,3.96873405 1.19819657,4.03309231 C0.886771984,4.09745058 0.628712472,4.31415077 0.511673434,4.60958605 C-0.450705131,7.04044014 -0.0369258269,9.80002996 1.59617817,11.8423988 C3.22928217,13.8847677 5.83176596,14.8973331 8.41722013,14.4963063 L12.7192673,18.7945522 C14.4047386,20.421699 17.0845292,20.3987218 18.7418018,18.7429136 C20.3990744,17.0871053 20.4220719,14.4096825 18.7934861,12.7257006 L14.5065427,8.44128746 L14.5065427,8.44254498 Z M17.3073435,17.3076916 C16.3828539,18.2307695 14.884243,18.2307695 13.9597533,17.3076916 L9.019428,12.3734865 L8.51821765,12.4896727 C6.85743573,12.8735119 5.11307362,12.4390787 3.82718019,11.3213704 C2.54128677,10.2036621 1.86967595,8.53811328 2.02104632,6.84228217 L3.69793529,8.51709377 C4.22013169,9.03864965 4.92838584,9.33165722 5.66688759,9.33165722 C6.40538935,9.33165722 7.11364349,9.03864965 7.6358399,8.51709377 L8.54420633,7.60985266 C9.06640912,7.08830317 9.35978014,6.38092643 9.35978014,5.64333955 C9.35978014,4.90575268 9.06640912,4.19837594 8.54420633,3.67682645 L6.88340557,2.01808316 C8.58096866,1.87793754 10.2430171,2.55846413 11.3535797,3.84839832 C12.4641424,5.13833251 12.8888013,6.88154581 12.4957241,8.53687013 L12.3769186,9.03993163 L17.3085811,13.9654845 C18.2309558,14.8893097 18.2304022,16.3845481 17.3073435,17.3076916 Z" id="Shape" fill="#333333" fill-rule="nonzero"></path>
                <rect id="Rectangle" fill="url(#linearGradient-2)" x="15" y="1" width="8" height="2" rx="1"></rect>
                <rect id="Rectangle-Copy-12" fill="url(#linearGradient-3)" x="16" y="5" width="7" height="2" rx="1"></rect>
                <rect id="Rectangle-Copy-23" fill="url(#linearGradient-4)" x="18" y="9" width="5" height="2" rx="1"></rect>
            </g>
        </g>
    </g>
</svg>

<svg width="23" height="20" xmlns="http://www.w3.org/2000/svg"><path d="M11.873 10.344a1.082 1.082 0 10-1.529 1.528l3.783 3.784a1.082 1.082 0 101.529-1.528l-3.783-3.784z"/><path d="M14.507 8.443a7.288 7.288 0 00-2.624-6.826A7.303 7.303 0 004.651.497a.943.943 0 00-.326 1.547l2.886 2.881a.943.943 0 010 1.333l-.923.924a.945.945 0 01-1.335 0L2.057 4.29a.945.945 0 00-1.545.32 7.286 7.286 0 001.084 7.232 7.3 7.3 0 006.821 2.654l4.302 4.299a4.298 4.298 0 006.023-.052 4.29 4.29 0 00.051-6.017L14.507 8.44v.002zm2.8 8.865a2.37 2.37 0 01-3.347 0l-4.94-4.935-.502.117a5.324 5.324 0 01-4.69-1.169A5.31 5.31 0 012.02 6.842l1.677 1.675a2.786 2.786 0 003.938 0l.908-.907a2.78 2.78 0 000-3.933l-1.66-1.659a5.322 5.322 0 014.47 1.83 5.306 5.306 0 011.142 4.689l-.12.503 4.933 4.925c.922.924.921 2.42-.002 3.343z"/><rect x="15" y="1" width="8" height="2" rx="1"/><rect x="16" y="5" width="7" height="2" rx="1"/><rect x="18" y="9" width="5" height="2" rx="1"/></svg>
